X:1
T:Title
L:1/8
Q:1/4=100
M:4/4
K:Eb
V:1 treble nm="Grand Piano"
V:1
 C G2 F G4 | E F2 G E2 C2 | C3 D- D E2 G | F6 FF | F c2 B c4 | B c2 d c4 | B B2 B- B A2 B | G8 | %8
w: ????~????~???? * * *||||||||
 C G2 F G4 | E F2 G E2 C2 | C3 D- D E2 G | F6 FF | F c2 B c4 | B c2 d c4 | B B2 B- B A2 B | G8 | %16
w: ||||||||
 G c2 B A2 GG- | G c2 B A2 G2 | G G2 G B2 d2 | c4 B4 | F B2 A B3 F- | F B2 A B3 B- | B A2 A E2 F2 | %23
w: |||||||
 G8 | G c2 B A2 GG- | G c2 B A2 G2 | G G2 G B2 d2 | c4 B4 | F B2 A B3 F- | F B2 A B3 B- | %30
w: |||||||
 B A2 A E2 F2 | G8 | G E2 C E3 C- | C E2 G F3 G- | G E2 C E2 G2 | _G4 F4 | F F2 G A4 | %37
w: |||||||
 c B2 A G3 G- | GAAG A2 B2 | c8 | G E2 C E3 C- | C E2 G F3 G- | G E2 C E2 G2 | _G4 F4 | F F2 G A4 | %45
w: ||||||||
 c B2 A G3 G- | GAAG A2 B2 | c8 | c c2 c c2 e2 | d4 c2 B2 | c8 |] %51
w: ||||||

